!!!OTL: 87. Eierkranz, Eierkranz, was gilt die Schanz?
!!!ARE: Europa, Mitteleuropa, Deutschland, Bacharach a.Rh., Oberdiebach
!!!SCT: K2087
!!!TXL: @@DE
!!!YEM: Copyright 1995, estate of Helmut Schaffrath.
**kern	**text
*clefG2	*
*M4/4	*
*met(c)	*
*k[f#]	*
*G:	*
=1	=1
{4dd	Ei-
4dd	-er-
2b	-kranʒ,
=2	=2
4dd	Ei-
4dd	-er-
4b}	-kranʒ,
{4g	was
=3	=3
4dd	gilt
4dd	die
4b	Schanʒ?
4g	Drei
=4	=4
2ee	Ba-
4b}	-tʒen.
{4g	Das
=5	=5
8dd	Gök-
8dd	-kel-
4dd	-chen
4ee	liegt
8ee	auf
8ee	der
=6	=6
2dd	Mau-
4b}	-er,
{4g	es
=7	=7
2dd	ſchlägt
2ee	ʒwölf
=8	=8
2dd	Au-
2b}	-er-
=9	=9
{4dd	-Häh-
4dd	-ne
4b	krä-
4g	-hen,
=10	=10
4dd	Hüh-
4dd	-ner
4b/	le-
4g}	-gen.
=11	=11
{4r	.
!LO:TUP:a	!
(12.dd	Ki-
24dd	-ki-
12dd)	-ri-
2gg;}	-ki!
==	==
!!!AGN: Kinder - Lied, Reigen, Tanz - Spiel
!!!ONB: ESAC (Essen Associative Code) Database: KINDER
!!!AMT: simple quadruple
!!!AIN: vox
!!!EED: Helmut Schaffrath
!!!EEV: 1.0
!!!GTL: Zweites Buch. Kinderspiel: 2. Reigen und Tanzspiele. / A. Ringelreihen mit Niederfallen.
!!@@COMMENT:"Die Kinder fassen die Haende, gehen im Kreise und singen Obiges. Beim Schlusswort beugen sich alle und rufen Kickeriki!"
!!@@END:
!!!URL-scan: https://archive.org/details/DeutschesKinderliedUndKinderspiel/page/446/mode/1up
!!!ENC: Anna Maria Matuszewska
!!!EEV: 2024/03/09
*-	*-
